easy/trist.svg

<svg viewBox="-491.485 -317.24 1914.745 310.861" xmlns="http://www.w3.org/2000/svg"><g data-name="Group 1348"><path fill="#fff" d="M1125.221 2226.297c503.158-.897 1025.49 24.055 926.795 137.092-98.695 113.039-172.482 55.229-1046.465 75.707-503.157.897-725.294.488-720.22-121.155 5.073-121.641 336.732-90.745 839.89-91.644Z" data-name="Path 729" transform="matrix(.9775 -.01832 .01924 1.02643 -755.49 -2555.075)"/><g data-name="Group 504"><path d="M7.558 0h103.61c4.175 0 7.552 3.885 7.552 8.68s-3.377 8.674-7.552 8.674H7.558C3.384 17.354 0 13.473 0 8.68S3.384 0 7.558 0Z" data-name="Path 211" style="fill:#51957b" transform="matrix(.80735 -.0146 .01683 1.02646 5.42 -188.51)"/><path d="M9.413 0a9.85 9.85 0 0 1 6.664 2.542L46.62 30.723a8.21 8.21 0 0 1 0 12.271L16.076 71.175a9.99 9.99 0 0 1-13.316.007 8.2 8.2 0 0 1-.005-12.269l23.9-22.054-23.9-22.046A8.2 8.2 0 0 1 2.76 2.542 9.812 9.812 0 0 1 9.413 0Z" data-name="Path 212" style="fill:#51957b" transform="matrix(.80735 -.0146 .01683 1.02646 60.931 -218.445)"/></g><path fill="none" stroke="#323f51" stroke-width="5" d="M379.396 2403.08s27.526-4.863 67.286-10.536c59.659-8.513 146.861-18.851 209.938-17.323 12.763.203 25.504 1.2 38.16 2.988" data-name="Path 730" transform="matrix(.97364 .0886 -.09304 1.02238 -486.394 -2614.512)"/><text x="343.855" y="2356.99" style="fill:#333;font-family:&quot;Roboto Slab&quot;;font-size:50.5px;white-space:pre" transform="matrix(2.06206 0 0 1.82668 -1037.244 -4455.717)">Trist</text><text x="343.855" y="2356.99" style="fill:#333;font-family:&quot;Roboto Slab&quot;;font-size:50.5px;font-style:italic;white-space:pre" transform="matrix(2.06206 0 0 1.82668 -586.39 -4452.23)">&apos;Det bliver aldrig bedre</text></g></svg>

<?xml version="1.0" encoding="utf-8"?>
<svg xmlns="http://www.w3.org/2000/svg" xmlns:bx="https://boxy-svg.com" viewBox="-491.485 -317.24 1914.745 310.861">
  <defs>
    
  </defs>
  <g id="Group_1348" data-name="Group 1348" transform="matrix(0.977665, 0, 0, 1.026609, -710.840881, -2577.016602)" style="">
    <path id="Path_729" data-name="Path 729" d="M 1125.221 2226.297 L 1125.221 2226.297 C 1628.379 2225.4 2150.711 2250.352 2052.016 2363.389 C 1953.321 2476.428 1879.534 2418.618 1005.551 2439.096 L 1005.551 2439.096 C 502.394 2439.993 280.257 2439.584 285.331 2317.941 C 290.404 2196.3 622.063 2227.196 1125.221 2226.297 Z" fill="#fff" style="" transform="matrix(0.999824, -0.017846, 0.019678, 0.999824, -45.668524, 21.372823)"/>
    <g id="Group_504" data-name="Group 504" transform="matrix(0.825793, -0.014217, 0.017213, 0.999853, 732.138977, 2298.424561)" style="">
      <path id="Path_211-2" data-name="Path 211" d="M7.558,0h103.61c4.175,0,7.552,3.885,7.552,8.68s-3.377,8.674-7.552,8.674H7.558C3.384,17.354,0,13.473,0,8.68S3.384,0,7.558,0Z" transform="translate(0 28.177)" style="fill: rgb(81, 149, 123);"/>
      <path id="Path_212-2" data-name="Path 212" d="M9.413,0a9.85,9.85,0,0,1,6.664,2.542L46.62,30.723a8.21,8.21,0,0,1,0,12.271L16.076,71.175a9.99,9.99,0,0,1-13.316.007,8.2,8.2,0,0,1-.005-12.269l23.9-22.054L2.755,14.813A8.2,8.2,0,0,1,2.76,2.542,9.812,9.812,0,0,1,9.413,0Z" transform="translate(69.345)" style="fill: rgb(81, 149, 123);"/>
    </g>
    <path id="Path_730" data-name="Path 730" d="M 379.396 2403.08 C 379.396 2403.08 406.922 2398.217 446.682 2392.544 C 506.341 2384.031 593.543 2373.693 656.62 2375.221 C 669.383 2375.424 682.124 2376.421 694.78 2378.209" fill="none" stroke="#323f51" stroke-width="5" style="" transform="matrix(0.995885, 0.08631, -0.095168, 0.995885, 229.574256, -36.524008)"/>
    <text transform="matrix(2.109167, 0, 0, 1.779329, -333.859589, -1830.005981)" style="fill: rgb(51, 51, 51); font-family: &quot;Roboto Slab&quot;; font-size: 50.5px; white-space: pre;" x="343.855" y="2356.99">Trist</text>
    <text transform="matrix(2.109167, 0, 0, 1.779329, 127.293884, -1826.609131)" style="fill: rgb(51, 51, 51); font-family: &quot;Roboto Slab&quot;; font-size: 50.5px; font-style: italic; white-space: pre;" x="343.855" y="2356.99">'Det bliver aldrig bedre</text>
  </g>
</svg>
